brandFactory_export/1.Light/Feliz felicidad emoji_1Light.svg

<?xml version="1.0" encoding="UTF-8"?>
<svg width="24px" height="24px" viewBox="0 0 24 24" version="1.1" xmlns="http://www.w3.org/2000/svg" xmlns:xlink="http://www.w3.org/1999/xlink">
    <title>1.Light/Feliz felicidad emoji_1Light</title>
    <g id="Symbols" stroke="none" stroke-width="1" fill="none" fill-rule="evenodd">
        <g id="1.Light/Feliz-felicidad-emoji_1Light" fill="#5CB615" fill-rule="nonzero">
            <path d="M18.1815126,14.1008403 C18.3630252,13.8991597 18.6756303,13.8823529 18.8773109,14.0638655 C19.0789916,14.2453782 19.0957983,14.5579832 18.9142857,14.7596639 C18.8067227,14.8773109 16.2655462,17.6470588 11.8890756,17.697479 C11.8285714,17.7008403 11.7680672,17.7008403 11.707563,17.7008403 C10.8369748,17.7008403 7.14957983,17.5327731 4.7092437,14.8033613 C4.52773109,14.6016807 4.54789916,14.2890756 4.74957983,14.107563 C4.9512605,13.9260504 5.26386555,13.9462185 5.44537815,14.1478992 C7.86554622,16.8571429 11.8218487,16.7193277 11.8621849,16.712605 C15.805042,16.6689076 18.1579832,14.1243697 18.1815126,14.1008403 L18.1815126,14.1008403 Z M11.8084034,22.6386555 C18.994958,22.6386555 22.6386555,18.9983193 22.6386555,11.8151261 C22.6386555,4.62857143 18.994958,0.98487395 11.8084034,0.98487395 C4.62521008,0.98487395 0.98487395,4.62857143 0.98487395,11.8151261 C0.98487395,18.9983193 4.62521008,22.6386555 11.8084034,22.6386555 Z M11.8084034,0 C19.2705882,0 23.6235294,3.76806723 23.6235294,11.8151261 C23.6235294,19.8621849 19.2705882,23.6235294 11.8084034,23.6235294 C4.34621849,23.6235294 0,19.8621849 0,11.8151261 C0,3.76806723 4.34621849,0 11.8084034,0 Z M8.22857143,9.94621849 C7.83529412,9.94621849 7.5092437,9.82521008 7.28403361,9.59663866 C7.06218487,9.37142857 6.9512605,9.05882353 6.9512605,8.66554622 C6.9512605,7.86554622 7.42857143,7.38487395 8.22857143,7.38487395 C9.02857143,7.38487395 9.50588235,7.86554622 9.50588235,8.66554622 C9.50588235,9.05882353 9.39495798,9.36806723 9.17310924,9.59663866 C8.94789916,9.82521008 8.62184874,9.94621849 8.22857143,9.94621849 L8.22857143,9.94621849 Z M15.394958,9.94621849 C15.0016807,9.94621849 14.6756303,9.82521008 14.4504202,9.59663866 C14.2285714,9.37142857 14.1176471,9.05882353 14.1176471,8.66554622 C14.1176471,7.86554622 14.594958,7.38487395 15.394958,7.38487395 C16.194958,7.38487395 16.6722689,7.86554622 16.6722689,8.66554622 C16.6722689,9.05882353 16.5613445,9.36806723 16.3394958,9.59663866 C16.1142857,9.82521008 15.7882353,9.94621849 15.394958,9.94621849 Z" id="Feliz-felicidad-emoji_1Light"></path>
        </g>
    </g>
</svg>

<svg width="24" height="24" viewBox="0 0 24 24" xmlns="http://www.w3.org/2000/svg"><path d="M18.182 14.1a.494.494 0 01.732.66c-.107.117-2.648 2.887-7.025 2.937-.06.004-.12.004-.181.004-.871 0-4.558-.168-6.999-2.898a.494.494 0 01.736-.655c2.42 2.71 6.377 2.571 6.417 2.565 3.943-.044 6.296-2.589 6.32-2.612zm-6.374 8.539c7.187 0 10.83-3.64 10.83-10.824 0-7.186-3.643-10.83-10.83-10.83C4.625.985.985 4.629.985 11.815c0 7.183 3.64 10.824 10.823 10.824zm0-22.639c7.463 0 11.816 3.768 11.816 11.815S19.27 23.624 11.808 23.624C4.346 23.624 0 19.862 0 11.815 0 3.768 4.346 0 11.808 0zm-3.58 9.946c-.393 0-.719-.12-.944-.35-.222-.225-.333-.537-.333-.93 0-.8.478-1.281 1.278-1.281s1.277.48 1.277 1.28c0 .394-.111.703-.333.932-.225.228-.551.35-.944.35zm7.167 0c-.393 0-.72-.12-.945-.35-.221-.225-.332-.537-.332-.93 0-.8.477-1.281 1.277-1.281.8 0 1.277.48 1.277 1.28 0 .394-.11.703-.333.932-.225.228-.55.35-.944.35z" fill="#5CB615" fill-rule="nonzero"/></svg>
